X:139
T:Elizabeth Keane's
R:jig
S:A friend of mine, Asa Ringborg, got this tune from Elizabeth Keane
Z:id:hn-jig-139
M:6/8
K:Ddor
D2d cec|AGE DCA,|A,DE ~F3|cBc GEC|
D2d cec|AGE DCA,|A,DE ~F3|1 GEC D2C:|2 GEC D2d||
Ade ~f3|~g3 a^fd|~c3 ecc|gcc edc|
Ade ~f3|~g3 a^fd|~c3 AGE|1 EDC D2d:|2 EDC D2C||

